src/assets/Card2.svg

<svg width="82" height="80" viewBox="0 0 82 80" fill="none" xmlns="http://www.w3.org/2000/svg">
<path d="M70.2657 61.8817C71.8026 66.7656 73.7569 75.1003 68.5903 78.6254C66.2127 80.247 63.5601 79.9521 60.8435 79.9502L9.39534 79.9571C6.18782 79.9595 3.46604 79.4544 1.49647 76.4805C-1.39249 72.1185 0.343181 63.4918 2.97335 59.0916C5.212 55.3468 9.62662 52.7918 13.5651 51.2783C18.3621 49.4343 21.5218 48.7027 25.7595 45.5368C26.5549 44.9422 27.3162 44.2675 28.1476 43.7272L28.2213 43.6798C26.078 41.5978 24.5825 38.3827 23.7229 35.5839L23.2704 33.9592C23.0001 32.853 22.8509 32.6088 22.119 31.737C19.9548 29.16 19.2272 23.4387 22.5703 21.7181C22.7564 21.6225 22.4649 19.8012 22.4221 19.4678C21.749 14.2151 21.7122 7.06219 26.9393 4.0503C29.0808 2.81642 31.5732 2.27063 33.8872 1.45075C35.257 0.96523 36.5736 0.243889 38.022 0.0331791C39.6245 -0.168682 41.248 0.594993 42.7182 1.12237C46.0469 2.31631 49.8261 3.39402 51.9906 6.39992C55.1455 10.7811 54.085 16.8099 53.2687 21.7509C56.6339 23.5873 55.9635 28.9002 54.0506 31.5146C52.8559 33.1477 53.2051 31.9994 52.4998 34.2337C51.0896 38.7008 49.4709 40.6818 46.5695 44.0883C48.6003 46.8993 53.1556 49.6127 56.4605 50.3051C57.0993 49.2473 58.0845 48.3578 58.9263 47.458L62.606 43.4026C64.1895 41.6552 66.4629 39.9236 65.9286 37.3707L65.4906 35.4191C64.5335 30.5252 67.6494 26.0354 72.81 25.6324C73.2111 25.6011 73.6624 25.5843 73.9779 25.8769C76.0941 27.8409 69.5695 29.6641 69.7218 33.6848C69.7737 35.0606 70.3958 36.6121 71.4314 37.5405C72.6933 38.6718 76.0642 38.7036 77.107 37.2387C78.0424 35.9242 78.7214 32.4275 80.5766 32.4046C81.9657 32.3873 81.7911 34.6772 81.7526 35.5755C81.6036 39.0198 78.6188 42.3728 75.1778 42.8308C73.8705 43.0049 72.4871 42.8358 71.1762 42.7686C69.4712 43.5698 65.0831 48.7603 63.7086 50.2575L61.4651 52.5407C61.5907 52.6464 61.7782 52.7042 61.9265 52.7743C65.6834 54.5475 68.8603 57.988 70.2655 61.8822L70.2657 61.8817ZM38.3688 2.75734L33.8777 4.43896C30.7845 5.44109 27.2158 6.04834 25.8425 9.40942C24.7726 12.0274 24.7738 15.2251 25.0474 18.006L25.4887 21.4156C25.5535 22.0826 25.5387 22.7703 25.5478 23.4407C29.0091 21.0396 32.9368 19.5218 37.1562 19.2126C41.3752 19.0459 46.8675 19.7739 50.054 22.648C50.1621 22.3773 50.1918 22.0501 50.2509 21.7638L50.551 20.3309C50.9715 18.2018 51.2925 16.1251 51.2932 13.9503C51.2937 8.57423 49.3329 6.68717 44.6803 4.8544L40.8124 3.42989C40.1078 3.1802 39.1088 2.70233 38.3688 2.75734ZM37.6097 21.9824C33.8889 22.279 29.8749 23.6356 26.9087 25.961C25.2553 27.2574 24.5263 26.8106 23.3809 25.0531C22.8253 26.4707 23.0162 28.9753 24.2797 29.9289C25.8331 31.1013 25.3902 30.3484 25.7867 32.4832C26.8355 38.1298 31.463 45.869 38.0854 45.58C43.6299 45.2775 48.1653 38.4271 49.7015 33.644C49.977 32.7851 50.0174 31.771 50.3812 30.9624C50.6732 30.3137 51.2805 30.1705 51.793 29.7653C52.965 28.8388 53.1255 26.1476 52.412 24.8384C51.64 26.6527 50.9083 26.685 49.3592 25.5011C46.1347 23.0369 41.6995 21.567 37.6097 21.9827V21.9824ZM30.2126 45.6449L27.8685 47.4217C28.6774 49.751 30.8574 51.9399 33.0473 53.0128C36.774 54.8374 40.6072 53.6119 43.5997 51.0939C44.6624 50.0722 45.432 49.027 46.1539 47.7469C45.748 47.1186 45.0434 46.5903 44.565 45.9945C40.6441 49.1303 35.9384 49.2078 31.7474 46.6503L30.2128 45.6449H30.2126ZM25.5401 49.1494C24.6387 49.7443 21.4085 50.9899 21.2628 51.7789C20.9021 53.7308 20.872 55.7202 20.8698 57.6991L21.3212 66.4334C21.6543 66.4901 22.0274 66.4573 22.3654 66.4573L51.4326 66.4351L51.6854 63.6662L51.9605 60.8459L51.954 51.772C51.9177 51.7263 48.9146 49.8952 48.4786 49.5699C46.1469 52.9281 43.1451 55.7711 38.9596 56.5032C33.7447 57.4159 29.1478 54.7855 26.3679 50.5118C26.0816 50.0714 25.8477 49.5699 25.5401 49.1494ZM18.3002 52.5964C13.6909 54.1524 7.27892 56.5336 4.95393 61.2417C4.47296 62.2163 4.1594 63.2692 3.84728 64.3067C2.75451 67.9416 1.52206 72.9183 4.66429 75.8929C5.78242 76.8084 6.90509 77.0624 8.31883 77.2148C8.82612 74.4844 11.397 71.9466 12.4163 68.9029C13.2936 66.2827 12.8188 66.4657 15.9443 66.4597L18.492 66.4533C18.0079 63.251 17.9359 59.8416 18.1 56.6219L18.2705 54.0989C18.3148 53.609 18.4006 53.1197 18.4179 52.6284L18.3004 52.5964H18.3002ZM54.7231 52.7925L54.7616 52.8719C54.8865 53.951 54.8346 55.079 54.8351 56.1658L54.4333 64.5664C54.3668 65.1732 54.3737 65.8489 54.2453 66.4408L56.6183 66.4506C58.1294 66.4454 58.714 66.4284 59.0294 68.0069L59.4224 69.8701C59.8201 71.4747 61.9631 75.9089 63.1688 77.1976C64.6337 77.231 66.1228 77.0686 67.3198 76.1407C71.1346 72.6698 68.1737 61.8856 65.351 58.8538C62.4027 55.6872 58.6546 54.256 54.7231 52.7923V52.7925ZM30.9301 69.2384L15.2263 69.274C14.4481 71.3862 13.8726 72.7262 12.5613 74.6631C11.9994 75.4923 11.3936 76.2244 11.1033 77.2014C12.1774 77.3363 13.3283 77.2602 14.4136 77.2609L40.0323 77.2574L59.8519 77.1459C59.6644 76.9802 59.1875 76.0407 59.0182 75.7726C57.896 73.9946 57.0376 71.9253 56.637 69.8598C56.5576 69.4506 56.7157 69.2927 56.2849 69.2647L30.9301 69.2384Z" fill="black"/>
</svg>

<svg xmlns="http://www.w3.org/2000/svg" width="82" height="80" fill="none" viewBox="0 0 82 80"><path fill="#000" d="M70.266 61.882c1.537 4.884 3.49 13.218-1.676 16.743-2.377 1.622-5.03 1.327-7.747 1.325l-51.448.007c-3.207.003-5.929-.503-7.899-3.476-2.888-4.362-1.153-12.99 1.477-17.39 2.239-3.744 6.654-6.3 10.592-7.813 4.797-1.844 7.957-2.575 12.195-5.741.795-.595 1.556-1.27 2.388-1.81l.073-.047c-2.143-2.082-3.639-5.297-4.498-8.096l-.453-1.625c-.27-1.106-.42-1.35-1.151-2.222-2.164-2.577-2.892-8.298.451-10.019.186-.096-.105-1.917-.148-2.25-.673-5.253-.71-12.406 4.517-15.418 2.142-1.234 4.634-1.78 6.948-2.6C35.257.966 36.574.245 38.022.034c1.602-.202 3.226.562 4.696 1.09 3.329 1.193 7.108 2.271 9.273 5.277 3.154 4.381 2.094 10.41 1.278 15.35 3.365 1.837 2.695 7.15.782 9.765-1.195 1.633-.846.484-1.551 2.719-1.41 4.467-3.03 6.448-5.93 9.854 2.03 2.811 6.586 5.525 9.89 6.217.64-1.058 1.624-1.947 2.466-2.847l3.68-4.055c1.583-1.748 3.857-3.48 3.323-6.032l-.438-1.952c-.957-4.894 2.158-9.384 7.319-9.787.401-.03.852-.048 1.168.245 2.116 1.964-4.408 3.787-4.256 7.808.052 1.376.674 2.927 1.71 3.855 1.261 1.132 4.632 1.164 5.675-.301.935-1.315 1.614-4.811 3.47-4.834 1.389-.018 1.214 2.272 1.176 3.17-.15 3.445-3.134 6.798-6.575 7.256-1.307.174-2.69.005-4.002-.062-1.705.8-6.093 5.991-7.467 7.489l-2.244 2.283c.126.105.313.163.461.233 3.757 1.773 6.934 5.214 8.34 9.108M38.369 2.757 33.878 4.44c-3.093 1.002-6.662 1.61-8.035 4.97-1.07 2.618-1.07 5.816-.796 8.597l.442 3.41c.064.667.05 1.354.059 2.025 3.461-2.401 7.389-3.92 11.608-4.228 4.22-.167 9.712.56 12.898 3.435.108-.27.138-.598.197-.884l.3-1.433c.42-2.13.741-4.206.742-6.38 0-5.377-1.96-7.264-6.613-9.097L40.812 3.43c-.704-.25-1.703-.728-2.443-.673m-.76 19.225c-3.72.297-7.734 1.654-10.7 3.979-1.654 1.296-2.383.85-3.528-.908-.556 1.418-.365 3.922.899 4.876 1.553 1.172 1.11.42 1.507 2.554 1.049 5.647 5.676 13.386 12.298 13.097 5.545-.302 10.08-7.153 11.617-11.936.275-.859.315-1.873.68-2.682.291-.648.899-.791 1.411-1.197 1.172-.926 1.333-3.617.619-4.927-.772 1.815-1.504 1.847-3.053.663-3.224-2.464-7.66-3.934-11.75-3.518m-7.396 23.663-2.344 1.777c.808 2.329 2.988 4.518 5.178 5.59 3.727 1.825 7.56.6 10.553-1.918 1.062-1.022 1.832-2.067 2.554-3.347-.406-.628-1.11-1.157-1.589-1.752-3.92 3.135-8.627 3.213-12.818.655zm-4.673 3.504c-.901.595-4.131 1.84-4.277 2.63-.36 1.952-.391 3.941-.393 5.92l.451 8.734c.333.057.706.024 1.044.024l29.068-.022.252-2.769.276-2.82-.007-9.074c-.036-.046-3.04-1.877-3.475-2.202-2.332 3.358-5.334 6.201-9.52 6.933-5.214.913-9.811-1.718-12.591-5.991-.286-.44-.52-.942-.828-1.363m-7.24 3.447c-4.61 1.556-11.021 3.938-13.346 8.646-.481.974-.795 2.027-1.107 3.065-1.092 3.635-2.325 8.611.817 11.586 1.118.915 2.241 1.17 3.655 1.322.507-2.73 3.078-5.268 4.097-8.312.878-2.62.403-2.437 3.528-2.443l2.548-.007c-.484-3.202-.556-6.611-.392-9.831l.17-2.523c.045-.49.13-.98.148-1.47zm36.423.197.039.079c.124 1.079.073 2.207.073 3.294l-.402 8.4c-.066.607-.06 1.283-.188 1.875l2.373.01c1.511-.006 2.096-.023 2.411 1.556l.393 1.863c.398 1.605 2.541 6.039 3.747 7.328 1.465.033 2.954-.13 4.15-1.057 3.816-3.471.855-14.255-1.968-17.287-2.948-3.167-6.696-4.598-10.628-6.062M30.93 69.238l-15.704.036c-.778 2.112-1.353 3.452-2.665 5.39-.562.828-1.167 1.56-1.458 2.537 1.074.135 2.225.06 3.31.06l25.62-.004 19.819-.111c-.188-.166-.664-1.105-.834-1.373-1.122-1.778-1.98-3.848-2.381-5.913-.08-.41.079-.567-.352-.595z"/></svg>
